X:157
T:Christelle's Jig ()
N:Not certain of the title
Z:robin.beech@mcigill.ca
R:jig
M:6/8
L:1/8
K:G
|: DGB cBA | dGc BAG | e2e dBG | A/B/cB AGE |
DGB cBA | dGc BAG | ee/e/e dge |1 dBA G2E :|2 dBA GB/c/d |:
g2g edB | ABc def | g2g edB | A/B/cB AGE | 
g2g edB | ABc d2d | A/B/cB AGA | BGF GB/c/d |
g2g edB | ABc def | g2g age | dBG AGE |
DGB cBA | dGc BAG | ee/e/e dge | dBA G2E |]
